pix_core/i/groupn.svg

<svg fill="none" height="24" preserveAspectRatio="xMinYMid meet" viewBox="0 0 24 24" width="24" xmlns="http://www.w3.org/2000/svg"><path d="m3.1875 4.1875 1.21875.9375c.4375-.65625 1.21875-1.125 2.09375-1.125 1.375 0 2.5 1.125 2.5 2.5 0 .65625-.25 1.25-.65625 1.6875l1.25 1c.56245-.71875 1.40625-1.1875 2.40625-1.1875 1.6562 0 3 1.34375 3 3 0 .7188-.25 1.375-.6875 1.9062l.8125.5938c.5312-.6875.875-1.5312.875-2.5 0-.2188-.0312-.4688-.0625-.6875.4063-.1875.875-.3125 1.375-.3125h1.3437c1.8438 0 3.3438 1.5 3.3438 3.3438 0 .375-.3125.6562-.6875.6562h-5.5625l5.9375 4.6875c.3437.25.4063.7187.125 1.0313-.25.3437-.7187.4062-1.0313.125l-18.49995-14.50005c-.34375-.25-.40625-.71875-.125-1.03125.25-.34375.71875-.40625 1.03125-.125zm2.125 5.8125h.46875l2.28125 1.8125c.1875.875.625 1.625 1.28125 2.1875h-.03125-6.65625c-.375 0-.65625-.2812-.65625-.6562 0-1.8438 1.46875-3.3438 3.3125-3.3438zm4.8437 5h1.9688l5.7812 4.5625c-.1562.25-.4374.4375-.75.4375h-10.3437c-.46875 0-.8125-.375-.8125-.8125 0-2.3125 1.84375-4.1875 4.1562-4.1875zm7.8438-6c-.9062 0-1.7188-.46875-2.1875-1.25-.4375-.75-.4375-1.71875 0-2.5.4687-.75 1.2813-1.25 2.1875-1.25.875 0 1.6875.5 2.1562 1.25.4376.78125.4376 1.75 0 2.5-.4687.78125-1.2812 1.25-2.1562 1.25z" fill="#fff"/></svg>

<svg width="24" height="24" viewBox="0 0 24 24" fill="none" xmlns="http://www.w3.org/2000/svg" preserveAspectRatio="xMinYMid meet">
<path fill="#fff" d="M3.1875 4.1875L4.40625 5.125C4.84375 4.46875 5.625 4 6.5 4C7.875 4 9 5.125 9 6.5C9 7.15625 8.75 7.75 8.34375 8.1875L9.59375 9.1875C10.1562 8.46875 11 8 12 8C13.6562 8 15 9.34375 15 11C15 11.7188 14.75 12.375 14.3125 12.9062L15.125 13.5C15.6562 12.8125 16 11.9688 16 11C16 10.7812 15.9688 10.5312 15.9375 10.3125C16.3438 10.125 16.8125 10 17.3125 10H18.6562C20.5 10 22 11.5 22 13.3438C22 13.7188 21.6875 14 21.3125 14H15.75L21.6875 18.6875C22.0312 18.9375 22.0938 19.4062 21.8125 19.7188C21.5625 20.0625 21.0938 20.125 20.7812 19.8438L2.28125 5.34375C1.9375 5.09375 1.875 4.625 2.15625 4.3125C2.40625 3.96875 2.875 3.90625 3.1875 4.1875ZM5.3125 10H5.78125L8.0625 11.8125C8.25 12.6875 8.6875 13.4375 9.34375 14H9.3125H2.65625C2.28125 14 2 13.7188 2 13.3438C2 11.5 3.46875 10 5.3125 10ZM10.1562 15H12.125L17.9062 19.5625C17.75 19.8125 17.4688 20 17.1562 20H6.8125C6.34375 20 6 19.625 6 19.1875C6 16.875 7.84375 15 10.1562 15ZM18 9C17.0938 9 16.2812 8.53125 15.8125 7.75C15.375 7 15.375 6.03125 15.8125 5.25C16.2812 4.5 17.0938 4 18 4C18.875 4 19.6875 4.5 20.1562 5.25C20.5938 6.03125 20.5938 7 20.1562 7.75C19.6875 8.53125 18.875 9 18 9Z" />
</svg>
